icon-themes/breeze_svg/cmd/32/insertfieldctrl.svg

<svg viewBox="0 0 32 32" xmlns="http://www.w3.org/2000/svg"><path d="m4 4v1h24v-1zm0 3v1h24v-1zm0 4v1h24v-1zm0 4v1h24v-1zm0 4v1h24v-1zm0 4v1h14v-1zm22 0v1h2v-1zm-22 4v1h24v-1z" fill="#4d4d4d"/><path d="m19 22v3h6v-3z" fill="#1d99f3"/></svg>

<svg xmlns="http://www.w3.org/2000/svg" viewBox="0 0 32 32">
 <path 
     style="fill:#4d4d4d" 
     d="M 4 4 L 4 5 L 28 5 L 28 4 L 4 4 z M 4 7 L 4 8 L 28 8 L 28 7 L 4 7 z M 4 11 L 4 12 L 28 12 L 28 11 L 4 11 z M 4 15 L 4 16 L 28 16 L 28 15 L 4 15 z M 4 19 L 4 20 L 28 20 L 28 19 L 4 19 z M 4 23 L 4 24 L 18 24 L 18 23 L 4 23 z M 26 23 L 26 24 L 28 24 L 28 23 L 26 23 z M 4 27 L 4 28 L 28 28 L 28 27 L 4 27 z "
     />
 <path 
     style="fill:#1d99f3" 
     d="M 19 22 L 19 25 L 25 25 L 25 22 L 19 22 z "
     />
</svg>
